X:159
M:C|
L:1/8
K:A Minor
e(AA)c B>A B2|A2 A>^g ae^fd|e(AA)c BA B2|G2 G>c BddB:|
e2 e>^g ae^fd|e/e/e ed e^fge|dBGB dgdB||

